X:1
T:Title
%%score { ( 1 3 ) | ( 2 4 ) }
L:1/8
M:6/8
K:Ab
V:1 treble nm="Grand Piano"
V:3 treble 
V:2 bass 
V:4 bass 
V:1
 z3 z2[Q:1/4=90] [CA] | [Ec]>[Ec][Ec] [Ec][DB][CA] | [DA][EG][DF] [CE]2 [CE] | %3
[M:3/8] [CE][CF][CA] | [CE][CF][CA] |[M:3/4] G6 | B>=A Bd cB | AA [GB] c2 c | Be G[=DB] [DA][DF] | %9
 [DB]6 | z A .A2 AA | c-[Ac-] [Ac] [CA]2 [CE] | [CE]F A[CE] F[A,CA] | [DG]6 | %14
 [Bd]-[GB-d-] [GBd][=Ac]- [_GA-c-][GAc] | [Bd]-[GB-d-] [GBd] [DGB]2 [DE] | %16
 [GB][GB] [_G=A][=GB] [GB][G_c] | [Ac]6 | e3 =d3 | e4 z2 | AA AA Bc | [Fd]6 | d3 f3 | e4 z2 | %24
 [Ae][FAd] [EAc][=DFB] [DF][_DEG][Q:1/4=89][Q:1/4=87][Q:1/4=86][Q:1/4=85][Q:1/4=83][Q:1/4=82][Q:1/4=81][Q:1/4=79][Q:1/4=78][Q:1/4=77][Q:1/4=75] | %25
[M:5/8] A-A- A3[Q:1/4=74][Q:1/4=73][Q:1/4=71][Q:1/4=70][Q:1/4=69] |] %26
V:2
 z3 z2 [A,,A,] | [A,,A,]>[A,,A,][A,,A,] [A,,A,][A,,E,][A,,E,] | %2
 [D,F,][D,G,][D,A,] [A,,A,]2 [A,,A,] |[M:3/8] [A,,A,][A,,A,][A,,E,] | [A,,A,][A,,A,][A,,E,] | %5
[M:3/4] [B,,E,]2 [E,B,] [E,B,]2 [E,G,D] | [E,G,D]>[E,_G,C] [E,=G,D][E,B,E] [E,A,E][E,G,D] | %7
 [F,A,C][F,CF] [E,E][K:treble] [A,EA]2 [A,EA] | [B,EG][B,G] [B,E][K:bass][B,,A,] [B,,F,][B,,A,] | %9
 [E,G,]6 | z E .E2[K:treble] FF | z E E [A,,E,]2 [A,,A,] | z C .C2 CA,, | E,E, E, E,3 | %14
 z E .E2 EE | z E E E,2 E, | [E,E][E,E] [E,E][E,E] [E,E][E,E] | [A,E]2 A, A,3 | z E .E2 EE | %19
 z E E [A,EA]2 [A,CE] | EE .E2 G[A,_G] | [D,A,]D, D, D,3 | %22
 z[K:treble] F .F2[K:bass][K:treble] [FA][FA] | z A A[K:bass] [E,E]2 [E,C] | [E,C]E, E,B,, B,,E, | %25
[M:5/8] z C_C =C2 |] %26
V:3
 x6 | x6 | x6 |[M:3/8] x3 | x3 |[M:3/4] D2 D D2 E | x6 | x6 | x6 | x6 | [DB]3 [=D_c]3 | .E2 z2 z2 | %12
 x6 | B,B, B, B,3 | .E2 z E z2 | .E2 z2 z2 | x6 | z2 E E3 | z c .c2 _cc | z c c c2 A | x6 | %21
 z A, A, A,3 | FA AA dd | Ac c [Ac]2 [Ae] | x6 |[M:5/8] [CE]E=D E2 |] %26
V:4
 x6 | x6 | x6 |[M:3/8] x3 | x3 |[M:3/4] x6 | x6 | x3[K:treble] x3 | x3[K:bass] x3 | x6 | %10
 [A,,A,]3 [A,,A,]3[K:treble] | [A,,A,]4 z2 | [A,,A,]3 .[A,,A,]3 | x6 | E,3 E,3 | E,4 z2 | x6 | x6 | %18
 [A,CA]3 [A,_CA]3 | [A,CA]4 z2 | [A,C]3 .[A,C]3 | x6 | [D,A,]3[K:treble][K:bass] [D,D]3[K:treble] | %23
 [E,C]4[K:bass] z2 | x6 |[M:5/8] A,,-A,,- A,,3 |] %26

